packages/foundations/assets/icons/functional/images/buildings/house_12_filled.svg

<svg width="12" height="12" viewBox="0 0 12 12" fill="none" xmlns="http://www.w3.org/2000/svg">
<g clip-path="url(#clip0_2202_1197)">
<path fill-rule="evenodd" clip-rule="evenodd" d="M4.22087 10.8H3.00387C2.84444 10.7952 2.69297 10.7293 2.58074 10.6159C2.46852 10.5026 2.40413 10.3505 2.40087 10.191V5.95301L2.23087 6.14001C2.17649 6.19662 2.11106 6.24145 2.03864 6.27173C1.96622 6.302 1.88835 6.31708 1.80987 6.31601C1.72861 6.31728 1.64794 6.30202 1.57275 6.27117C1.49757 6.24032 1.42944 6.19451 1.37249 6.13653C1.31554 6.07856 1.27096 6.00961 1.24146 5.93389C1.21196 5.85816 1.19815 5.77724 1.20087 5.69601C1.20087 5.56601 1.24787 5.43801 1.34087 5.34401L4.86487 1.81001C5.12287 1.55001 5.40387 1.20001 6.00087 1.20001C6.59787 1.20001 6.87887 1.55201 7.13687 1.80901L10.6249 5.28601C10.7096 5.3718 10.7668 5.48095 10.7891 5.59946C10.8113 5.71798 10.7977 5.84044 10.7498 5.95114C10.702 6.06183 10.6222 6.15571 10.5206 6.22073C10.4191 6.28574 10.3004 6.31892 10.1799 6.31601C10.0399 6.31601 9.90887 6.28301 9.81787 6.18701L9.60087 5.95301V10.191C9.60087 10.519 9.29087 10.8 8.99787 10.8H7.80387C7.48787 10.8 7.20087 10.59 7.20087 10.273V7.20001H4.80087V10.203C4.80087 10.519 4.59587 10.8 4.22087 10.8Z" fill="#1A1C1F"/>
</g>
<defs>
<clipPath id="clip0_2202_1197">
<rect width="12" height="12" fill="white"/>
</clipPath>
</defs>
</svg>

<svg xmlns="http://www.w3.org/2000/svg" width="12" height="12" fill="none"><g clip-path="url(#a)"><path fill="#1A1C1F" fill-rule="evenodd" d="M4.22 10.8H3.005a.62.62 0 0 1-.603-.609V5.953l-.17.187a.57.57 0 0 1-.421.176.6.6 0 0 1-.61-.62c0-.13.048-.258.14-.352L4.866 1.81c.258-.26.539-.61 1.136-.61s.878.352 1.136.609l3.488 3.477a.606.606 0 0 1-.445 1.03c-.14 0-.271-.033-.362-.129L9.6 5.953v4.238c0 .328-.31.609-.603.609H7.804c-.316 0-.603-.21-.603-.527V7.2H4.8v3.003c0 .316-.205.597-.58.597" clip-rule="evenodd"/></g><defs><clipPath id="a"><path fill="#fff" d="M0 0h12v12H0z"/></clipPath></defs></svg>
